archdroid-icon-theme/Archdroid-DeepOrange/places/scalable/folder-xubuntu-color.svg

<svg fill="#FF5722" height="48" viewBox="0 0 48 48" width="48" xmlns="http://www.w3.org/2000/svg"><path d="m8 8c-2.21 0-3.980469 1.79-3.980469 4l-.019531 24c0 2.21 1.79 4 4 4h32c2.21 0 4-1.79 4-4v-20c0-2.21-1.79-4-4-4h-16l-4-4zm26.251953 8a.399716.398548 0 0 0 .050781.001953c.055713-.003273.043179-.001002.058594.009766s.052846.048537.113281.121094c.087784.105662.115944.160752.132813.251953a.399716.398548 0 0 0 0 .019531c.128957 1.976387-.217255 3.995481-.703125 5.917969a.399716.398548 0 0 0 -.070313.167968c-.03564.221967-.113013.376706-.234375.460938-.112149.077814-.161018.092479-.193359.085937-.043209-.008862-.115978-.077753-.173828-.152343a.399716.398548 0 0 0 -.03125-.070313c-.31098-1.134614.076515-2.339132.197266-3.521484a.399716.398548 0 0 0 0-.056641c.246342-1.079737.252045-2.282469.796875-3.201172-.011885.019202.008164-.005536.05664-.035156zm4.466797.933594a.374518.373424 0 0 0 .001953 0c.08033-.009968.229288.088696.244141.11914.050415.103052.046945.156074-.009766.292969a.374518.373424 0 0 0 -.001953.007813c-.820008 2.084934-1.818112 4.229808-3.138672 6.039062a.374518.373424 0 0 0 -.009765.013672c-.01217.018243-.005095.041216-.013672.0625-.098755.14742-.33894.23073-.470703.203125-.139747-.030206-.274783-.16311-.279297-.398437.097606-1.488526 1.025563-2.765691 1.753906-4.052735a.374518.373424 0 0 0 .041016-.109375c.578394-.787716 1.009731-1.768175 1.845703-2.173828a.374518.373424 0 0 0 .037109-.003906zm-12.984375.601562c.135506-.024718.274945-.014559.400391 0 .416883.029038.761335.215661 1.003906.5.408131.477933.601109 1.186196.726562 1.925782.124154.736522.159736 1.526643.175782 2.125v.724609c-.000137.017439 0 .035789 0 .048828 0 .033438-.016046.072525 0 .101563.01757.030557.070486.031389.099609.048828.023347.014479.026151.02219.050781.02539.045731.014559.091189.036303.175782.050782.285894.052396.741913.072843 1.228515.148437.973493.150973 2.2482.431272 3.560547.775391 1.312916.344262 2.629635.816266 3.685547 1.5 1.051965.681254 1.840529 1.563327 2.003906 2.75.10327.736098-.458642 1.475824-1.228515 2.15039-.768558.673551-1.77351 1.304729-2.857422 1.898438-1.083479.59326-2.211738 1.131468-3.109375 1.550781-.448839.209729-.847636.354411-1.152344.5-1.550955.623802-3.296756 1.180632-5.140625 1.550781-.072928 0-.246879.043229-.324219.048828-9.3891.811285-5.015625-10.773437-5.015625-10.773437.00053 0 .231358-.5476.326172-.875.018934-.074155.050781-.273215.050781-.349609-.013077-.077115-.06225-.22098-.101562-.375-.09175-.365358-.232325-.811971-.324219-1.351563-.090418-.540768-.149392-1.16049-.025391-1.699219.1234-.530585.440378-1.038944 1.001954-1.349609.217323-.107992.467543-.152006.677734-.099609.217764.053756.443895.214579.626953.375.366259.321144.695771.785705.976563 1.298828.279765.51109.53291 1.056256.728515 1.5.098015.222823.153126.399224.22461.550781.032091.066875.055793.161381.076171.199219.01757.036397 0 .037069 0 .02539.019015.030558.070487.033343.09961.050782-.019014-.014559.062261.034349.125.048828.092038.023278.160938.05638.25.050781.045209 0 .090609-.023103.126953-.050781.016046 0-.016046-.040109 0-.048828.029203-.034958.048828-.032576.048828-.076172v-.09961c-.037788-.13235-.115138-.32595-.224609-.724609-.127347-.460774-.244492-1.065274-.326172-1.650391-.081697-.586285-.122541-1.15881 0-1.673828.120343-.503379.398251-.934318.902344-1.125.142526-.055276.342372-.176294.476562-.201172z" fill="#04a"/></svg>

<svg fill="#FF5722" height="48" version="1.1" viewBox="0 0 48 48" width="48" xmlns="http://www.w3.org/2000/svg"><path d="M8 8C5.79 8 4.019531 9.79 4.019531 12L4 36C4 38.21 5.79 40 8 40L40 40C42.21 40 44 38.21 44 36L44 16C44 13.79 42.21 12 40 12L24 12 20 8 8 8zM34.251953 16A .399716.398548 0 0 0 34.302734 16.001953C34.358447 15.99868 34.345913 16.000951 34.361328 16.011719 34.376743 16.022487 34.414174 16.060256 34.474609 16.132813 34.562393 16.238475 34.590553 16.293565 34.607422 16.384766A.399716.398548 0 0 0 34.607422 16.404297C34.736379 18.380684 34.390167 20.399778 33.904297 22.322266A.399716.398548 0 0 0 33.833984 22.490234C33.798344 22.712201 33.720971 22.86694 33.599609 22.951172 33.48746 23.028986 33.438591 23.043651 33.40625 23.037109 33.363041 23.028247 33.290272 22.959356 33.232422 22.884766A.399716.398548 0 0 0 33.201172 22.814453C32.890192 21.679839 33.277687 20.475321 33.398438 19.292969A.399716.398548 0 0 0 33.398438 19.236328C33.64478 18.156591 33.650483 16.953859 34.195313 16.035156 34.183428 16.054358 34.203477 16.02962 34.251953 16zM38.71875 16.933594A.374518.373424 0 0 0 38.720703 16.933594C38.801033 16.923626 38.949991 17.02229 38.964844 17.052734 39.015259 17.155786 39.011789 17.208808 38.955078 17.345703A.374518.373424 0 0 0 38.953125 17.353516C38.133117 19.43845 37.135013 21.583324 35.814453 23.392578A.374518.373424 0 0 0 35.804688 23.40625C35.792518 23.424493 35.799593 23.447466 35.791016 23.46875 35.692261 23.61617 35.452076 23.69948 35.320313 23.671875 35.180566 23.641669 35.04553 23.508765 35.041016 23.273438 35.138622 21.784912 36.066579 20.507747 36.794922 19.220703A.374518.373424 0 0 0 36.835938 19.111328C37.414332 18.323612 37.845669 17.343153 38.681641 16.9375A.374518.373424 0 0 0 38.71875 16.933594zM25.734375 17.535156C25.869881 17.510438 26.00932 17.520597 26.134766 17.535156 26.551649 17.564194 26.896101 17.750817 27.138672 18.035156 27.546803 18.513089 27.739781 19.221352 27.865234 19.960938 27.989388 20.69746 28.02497 21.487581 28.041016 22.085938L28.041016 22.810547C28.040879 22.827986 28.041016 22.846336 28.041016 22.859375 28.041016 22.892813 28.02497 22.9319 28.041016 22.960938 28.058586 22.991495 28.111502 22.992327 28.140625 23.009766 28.163972 23.024245 28.166776 23.031956 28.191406 23.035156 28.237137 23.049715 28.282595 23.071459 28.367188 23.085938 28.653082 23.138334 29.109101 23.158781 29.595703 23.234375 30.569196 23.385348 31.843903 23.665647 33.15625 24.009766 34.469166 24.354028 35.785885 24.826032 36.841797 25.509766 37.893762 26.19102 38.682326 27.073093 38.845703 28.259766 38.948973 28.995864 38.387061 29.73559 37.617188 30.410156 36.84863 31.083707 35.843678 31.714885 34.759766 32.308594 33.676287 32.901854 32.548028 33.440062 31.650391 33.859375 31.201552 34.069104 30.802755 34.213786 30.498047 34.359375 28.947092 34.983177 27.201291 35.540007 25.357422 35.910156 25.284494 35.910156 25.110543 35.953385 25.033203 35.958984 15.644103 36.770269 20.017578 25.185547 20.017578 25.185547 20.018108 25.185547 20.248936 24.637947 20.34375 24.310547 20.362684 24.236392 20.394531 24.037332 20.394531 23.960938 20.381454 23.883823 20.332281 23.739958 20.292969 23.585938 20.201219 23.220580000000003 20.060644 22.773967 19.96875 22.234375 19.878332 21.693607 19.819358 21.073885 19.943359 20.535156 20.066759 20.004571 20.383737 19.496212 20.945313 19.185547 21.162636 19.077555 21.412856 19.033541 21.623047 19.085938 21.840811 19.139694 22.066942 19.300517 22.25 19.460938 22.616259 19.782082 22.945771 20.246643 23.226563 20.759766 23.506328 21.270856 23.759473 21.816022 23.955078 22.259766 24.053093 22.482589 24.108204 22.65899 24.179688 22.810547 24.211779 22.877422 24.235481 22.971928 24.255859 23.009766 24.273429 23.046163 24.255859 23.046835 24.255859 23.035156 24.274874 23.065714 24.326346 23.068499 24.355469 23.085938 24.336455 23.071379 24.41773 23.120287 24.480469 23.134766 24.572507 23.158044 24.641407 23.191146 24.730469 23.185547 24.775678 23.185547 24.821078 23.162444 24.857422 23.134766 24.873468 23.134766 24.841376 23.094657 24.857422 23.085938 24.886625 23.05098 24.90625 23.053362 24.90625 23.009766L24.90625 22.910156C24.868462 22.777806000000003 24.791112 22.584206 24.681641 22.185547 24.554294 21.724773 24.437149 21.120273 24.355469 20.535156 24.273772 19.948871 24.232928 19.376346 24.355469 18.861328 24.475812 18.357949 24.75372 17.92701 25.257813 17.736328 25.400339 17.681052 25.600185 17.560034 25.734375 17.535156z" fill="#04a"/></svg>
